X: 20672
Q: "Slow and with feeling."
M: 2/4
L: 1/16
K: G
[|\
(D2G2)(G3A) | (B2c2)(e3d) | (c2dc) (A3F) | F3D D4 |\
_B2G2_E2=F2) | (D2_e2d2=c2 | _B2G2_E2=F2) | (D2_e2d2=c2 |\
_B2G2_E2=F2) | (D2G2_E2=F2) | D2G2_E2=F2 | D2D2 (=E3D) | D3D (HE3"^D.C."D) |]


